gama.ui.shared/icons_svg/light/agents/action.focus.svg

<svg height="25" viewBox="-955.708 -4045.5 25 25" width="25" xmlns="http://www.w3.org/2000/svg"><g fill="none"><circle cx="-943.208" cy="-4033" fill="#fff" r="12"/><circle cx="-943.208" cy="-4033" r="12" stroke="#000" stroke-linecap="round" stroke-linejoin="round" stroke-width=".25"/><path d="m-945.9044-4032.6364h-4.9403c-.2008 0-.3636-.1626-.3636-.3636s.1628-.3636.3636-.3636h4.9403l-1.561-1.5611c-.142-.142-.142-.3723 0-.5143s.3722-.142.5142 0l2.1818 2.182c.142.142.142.372 0 .514l-2.1818 2.182c-.142.142-.3722.142-.5142 0s-.142-.3723 0-.5143zm2.6961 2.6961-1.5611 1.5611c-.142.1422-.3722.1422-.5142 0-.142-.1421-.142-.3723 0-.5143l2.1818-2.1818c.142-.142.3722-.142.5142 0l2.1819 2.1818c.142.142.142.3722 0 .5143-.142.1422-.3723.1422-.5143 0l-1.561-1.5611v4.213c0 .2008-.1628.3637-.3637.3637-.2008 0-.3636-.1629-.3636-.3637zm3.4233-3.4233h4.213c.2009 0 .3637.1626.3637.3636s-.1628.3636-.3637.3636h-4.213l1.5611 1.5611c.142.142.142.3723 0 .5143s-.3723.142-.5143 0l-2.1818-2.182c-.142-.142-.142-.372 0-.514l2.1818-2.182c.142-.142.3723-.142.5143 0s.142.3723 0 .5143zm-3.4233-2.6961v-4.213c0-.2008.1628-.3637.3636-.3637.2009 0 .3637.1629.3637.3637v4.213l1.561-1.5611c.142-.1422.3723-.1422.5143 0 .142.1421.142.3723 0 .5143l-2.1819 2.1818c-.142.142-.3722.142-.5142 0l-2.1818-2.1818c-.142-.142-.142-.3722 0-.5143.142-.1422.3722-.1422.5142 0z" fill="#66727e"/></g></svg>

<?xml version="1.0" encoding="UTF-8" standalone="no"?>
<!DOCTYPE svg PUBLIC "-//W3C//DTD SVG 1.1//EN" "http://www.w3.org/Graphics/SVG/1.1/DTD/svg11.dtd">
<svg version="1.1" xmlns="http://www.w3.org/2000/svg" xmlns:xl="http://www.w3.org/1999/xlink" xmlns:dc="http://purl.org/dc/elements/1.1/" viewBox="-955.7083 -4045.5 24.999996 25" width="24.999996" height="25">
  <defs/>
  <g id="SOURCES" stroke-dasharray="none" fill="none" stroke="none" fill-opacity="1" stroke-opacity="1">
    <title>SOURCES</title>
    <g id="SOURCES_Calque_2">
      <title>Calque 2</title>
      <g id="Graphic_8792">
        <circle cx="-943.2083" cy="-4033" r="12.0000182688381" fill="white"/>
        <circle cx="-943.2083" cy="-4033" r="12.0000182688381" stroke="black" stroke-linecap="round" stroke-linejoin="round" stroke-width=".25"/>
      </g>
      <g id="Graphic_8796">
        <path d="M -945.9044 -4032.6364 L -950.8447 -4032.6364 C -951.0455 -4032.6364 -951.2083 -4032.799 -951.2083 -4033 C -951.2083 -4033.201 -951.0455 -4033.3636 -950.8447 -4033.3636 L -945.9044 -4033.3636 L -947.4654 -4034.9247 C -947.6074 -4035.0667 -947.6074 -4035.297 -947.4654 -4035.439 C -947.3234 -4035.581 -947.0932 -4035.581 -946.9512 -4035.439 L -944.7694 -4033.257 C -944.6274 -4033.115 -944.6274 -4032.885 -944.7694 -4032.743 L -946.9512 -4030.561 C -947.0932 -4030.419 -947.3234 -4030.419 -947.4654 -4030.561 C -947.6074 -4030.703 -947.6074 -4030.9333 -947.4654 -4031.0753 Z M -943.2083 -4029.9403 L -944.7694 -4028.3792 C -944.9114 -4028.237 -945.1416 -4028.237 -945.2836 -4028.3792 C -945.4256 -4028.5213 -945.4256 -4028.7515 -945.2836 -4028.8935 L -943.1018 -4031.0753 C -942.9598 -4031.2173 -942.7296 -4031.2173 -942.5876 -4031.0753 L -940.4057 -4028.8935 C -940.2637 -4028.7515 -940.2637 -4028.5213 -940.4057 -4028.3792 C -940.5477 -4028.237 -940.778 -4028.237 -940.92 -4028.3792 L -942.481 -4029.9403 L -942.481 -4025.7273 C -942.481 -4025.5265 -942.6438 -4025.3636 -942.8447 -4025.3636 C -943.0455 -4025.3636 -943.2083 -4025.5265 -943.2083 -4025.7273 L -943.2083 -4029.9403 Z M -939.785 -4033.3636 L -935.572 -4033.3636 C -935.3711 -4033.3636 -935.2083 -4033.201 -935.2083 -4033 C -935.2083 -4032.799 -935.3711 -4032.6364 -935.572 -4032.6364 L -939.785 -4032.6364 L -938.2239 -4031.0753 C -938.0819 -4030.9333 -938.0819 -4030.703 -938.2239 -4030.561 C -938.3659 -4030.419 -938.5962 -4030.419 -938.7382 -4030.561 L -940.92 -4032.743 C -941.062 -4032.885 -941.062 -4033.115 -940.92 -4033.257 L -938.7382 -4035.439 C -938.5962 -4035.581 -938.3659 -4035.581 -938.2239 -4035.439 C -938.0819 -4035.297 -938.0819 -4035.0667 -938.2239 -4034.9247 L -939.785 -4033.3636 Z M -943.2083 -4036.0597 L -943.2083 -4040.2727 C -943.2083 -4040.4735 -943.0455 -4040.6364 -942.8447 -4040.6364 C -942.6438 -4040.6364 -942.481 -4040.4735 -942.481 -4040.2727 L -942.481 -4036.0597 L -940.92 -4037.6208 C -940.778 -4037.763 -940.5477 -4037.763 -940.4057 -4037.6208 C -940.2637 -4037.4787 -940.2637 -4037.2485 -940.4057 -4037.1065 L -942.5876 -4034.9247 C -942.7296 -4034.7827 -942.9598 -4034.7827 -943.1018 -4034.9247 L -945.2836 -4037.1065 C -945.4256 -4037.2485 -945.4256 -4037.4787 -945.2836 -4037.6208 C -945.1416 -4037.763 -944.9114 -4037.763 -944.7694 -4037.6208 L -943.2083 -4036.0597 Z" fill="#66727e"/>
      </g>
    </g>
  </g>
</svg>
